dist/img/like-icon.svg

<?xml version="1.0" encoding="UTF-8"?>
<svg width="17px" height="16px" viewBox="0 0 17 16" version="1.1" xmlns="http://www.w3.org/2000/svg" xmlns:xlink="http://www.w3.org/1999/xlink">
    <!-- Generator: Sketch 46.2 (44496) - http://www.bohemiancoding.com/sketch -->
    <title>Shape</title>
    <desc>Created with Sketch.</desc>
    <defs></defs>
    <g id="Relieved-homepage" stroke="none" stroke-width="1" fill="none" fill-rule="evenodd">
        <g id="relieved-homepage-1440" transform="translate(-1238.000000, -4350.000000)" fill-rule="nonzero" fill="#FFFFFF">
            <g id="10-most-inspiring" transform="translate(60.000000, 4007.000000)">
                <g id="mi-cards" transform="translate(0.000000, 80.000000)">
                    <g id="like-us-callout" transform="translate(1088.000000, 0.000000)">
                        <g id="Group-45" transform="translate(33.000000, 119.000000)">
                            <g id="like-cta" transform="translate(40.000000, 134.000000)">
                                <g id="Group-9" transform="translate(17.000000, 10.000000)">
                                    <g id="noun_993007_cc">
                                        <path d="M8.26494118,15.7689412 C8.24988235,15.7689412 8.23458824,15.7682353 8.21952941,15.7665882 C8.07811765,15.7529412 7.41952941,15.5818824 5.15435294,14.9710588 C4.96894118,14.9209412 4.78729412,14.872 4.62964706,14.8294118 C4.53764706,14.9931765 4.35647059,15.1656471 4.02211765,15.3183529 C3.96070588,15.3465882 3.89388235,15.3611765 3.82635294,15.3611765 L0.970588235,15.3611765 C0.902823529,15.3611765 0.836,15.3463529 0.774352941,15.3183529 C0.321647059,15.1105882 0.0922352941,14.8294118 0.0922352941,14.4823529 L0.0922352941,7.56705882 C0.0922352941,7.31764706 0.226352941,7.05647059 0.442352941,6.88541176 C0.612235294,6.75058824 0.815294118,6.68988235 1.00847059,6.71388235 L3.788,6.71388235 C4.032,6.68188235 4.29623529,6.78541176 4.48988235,6.99082353 C4.50705882,7.00917647 4.52376471,7.02823529 4.53905882,7.04752941 C5.06494118,6.63717647 5.82611765,6.04494118 6.40188235,5.59670588 C6.82988235,5.26376471 7.14917647,5.01529412 7.176,4.99411765 C7.18211765,4.98917647 7.19035294,4.98282353 7.19670588,4.97835294 C7.19811765,4.97670588 7.33152941,4.86611765 7.42141176,4.66564706 C7.56541176,4.34494118 9.22164706,0.873647059 9.29223529,0.726823529 C9.376,0.550823529 9.52282353,0.412470588 9.70470588,0.338823529 C9.76258824,0.314588235 9.98517647,0.231529412 10.2736471,0.231529412 C10.8564706,0.231529412 11.8428235,0.572235294 11.8428235,1.84917647 L11.8414118,2.96752941 C11.84,3.73176471 11.8383529,4.60117647 11.8404706,5.28611765 L14.4668235,5.28611765 C15.6456471,5.28611765 16.3781176,5.976 16.3783529,7.08588235 C16.3783529,7.59247059 16.1752941,8.07317647 15.828,8.42658824 C15.9783529,8.70329412 16.0583529,9.01435294 16.0583529,9.33647059 C16.0583529,9.89552941 15.8103529,10.4207059 15.3990588,10.7792941 C15.5162353,11.0303529 15.5785882,11.3061176 15.5785882,11.5875294 C15.5785882,12.1465882 15.3305882,12.6717647 14.9192941,13.0303529 C15.0364706,13.2809412 15.0985882,13.5564706 15.0985882,13.8381176 C15.0985882,14.8767059 14.2465882,15.7430588 13.1995294,15.7689412 L8.26494118,15.7689412 Z M8.30494118,14.8277647 L13.1877647,14.8277647 C13.7171765,14.8143529 14.1574118,14.3703529 14.1574118,13.8378824 C14.1574118,13.6042353 14.0731765,13.3788235 13.92,13.2032941 C13.8228235,13.092 13.7835294,12.9414118 13.8141176,12.7964706 C13.8447059,12.652 13.9416471,12.5298824 14.0755294,12.4675294 C14.4167059,12.3082353 14.6374118,11.9625882 14.6374118,11.5875294 C14.6374118,11.3541176 14.5529412,11.1284706 14.3992941,10.952 C14.3025882,10.8404706 14.2635294,10.6901176 14.2943529,10.5454118 C14.3249412,10.4011765 14.4214118,10.2792941 14.5552941,10.2169412 C14.8964706,10.0571765 15.1171765,9.712 15.1171765,9.33670588 C15.1171765,9.08447059 15.0204706,8.84517647 14.8444706,8.66329412 C14.7437647,8.55905882 14.6967059,8.41388235 14.7169412,8.27035294 C14.7371765,8.12682353 14.8225882,8.00070588 14.9482353,7.92847059 C15.2498824,7.75505882 15.4371765,7.43247059 15.4371765,7.08635294 C15.4371765,6.71788235 15.3362353,6.22752941 14.4668235,6.22752941 L11.3722353,6.22752941 C11.1136471,6.22752941 10.9035294,6.01882353 10.9016471,5.76047059 C10.8967059,5.03976471 10.8983529,3.92094118 10.9002353,2.96611765 L10.9016471,1.84941176 C10.9016471,1.29035294 10.5602353,1.17294118 10.2736471,1.17294118 C10.2084706,1.17294118 10.1508235,1.18423529 10.112,1.19435294 C9.87811765,1.68376471 8.41294118,4.75552941 8.28,5.05152941 C8.10094118,5.45082353 7.83247059,5.67552941 7.78047059,5.71647059 C7.77105882,5.724 7.76282353,5.73058824 7.75529412,5.73623529 C7.71482353,5.76823529 7.57129412,5.88 6.98,6.34 C6.26470588,6.89647059 5.14752941,7.76588235 4.70447059,8.11270588 L4.70447059,13.8752941 C4.87552941,13.9209412 5.10564706,13.9832941 5.39905882,14.0623529 C6.32352941,14.3115294 8.01976471,14.7691765 8.30494118,14.8277647 Z M1.08141176,14.42 L3.71694118,14.42 C3.73529412,14.4103529 3.75058824,14.4014118 3.76329412,14.3938824 L3.76329412,14.248 C3.76305882,14.2416471 3.76305882,14.2352941 3.76329412,14.2291765 L3.76329412,7.888 C3.76329412,7.88517647 3.76329412,7.88258824 3.76329412,7.87976471 L3.76329412,7.65482353 L1.03341176,7.65482353 L1.03341176,14.3910588 C1.04541176,14.3990588 1.06117647,14.4087059 1.08141176,14.42 Z" id="Shape"></path>
                                    </g>
                                </g>
                            </g>
                        </g>
                    </g>
                </g>
            </g>
        </g>
    </g>
</svg>

<svg class="like-icon" width="17" height="16" viewBox="0 0 17 16" xmlns="http://www.w3.org/2000/svg">
  <title>
    Shape
  </title>
  <path d="M8.265 15.769c-.015 0-.0304-.0008-.0455-.0024-.1414-.0137-.8-.1847-3.065-.7955l-.525-.141c-.092.164-.273.336-.6074.489-.061.028-.128.043-.195.043H.971c-.068 0-.1348-.015-.196-.043-.453-.208-.6826-.489-.6826-.836V7.567c0-.2494.1343-.5105.3503-.6816.1698-.1348.373-.1955.566-.1715H3.788c.244-.032.5082.071.702.276.017.018.0338.037.049.056.526-.411 1.287-1.003 1.863-1.451.428-.333.7472-.582.774-.603.006-.005.0144-.012.0207-.016.0014-.002.1348-.1128.2247-.313.144-.32 1.8002-3.791 1.8708-3.938.0838-.176.2306-.314.4125-.388.058-.024.2805-.1076.569-.1076.5828 0 1.569.341 1.569 1.618l-.0013 1.118c-.0014.7643-.003 1.634-.001 2.3186h2.6264c1.1788 0 1.9113.69 1.9116 1.8 0 .5065-.203.987-.5504 1.3406.1504.276.2304.588.2304.91 0 .559-.248 1.084-.6593 1.442.118.251.18.527.18.8082 0 .559-.248 1.0842-.659 1.443.117.2503.18.526.18.8075 0 1.0387-.852 1.905-1.899 1.931H8.265zm.04-.9412h4.8828c.5294-.0134.9696-.4574.9696-.99 0-.2336-.0842-.459-.2374-.6345-.0972-.1113-.1365-.262-.106-.4068.0307-.1445.1276-.2666.2615-.329.3412-.1593.562-.505.562-.88 0-.2334-.0846-.459-.2382-.6355-.0967-.1115-.1358-.262-.105-.4066.0306-.1442.127-.266.261-.3285.3412-.16.562-.505.562-.881 0-.252-.0968-.492-.2728-.674-.1007-.104-.1478-.25-.1276-.393.02-.144.105-.27.231-.342.301-.174.489-.496.489-.842 0-.369-.101-.859-.971-.859h-3.094c-.259 0-.469-.209-.471-.467-.005-.721-.003-1.84-.002-2.795l.002-1.117c0-.559-.342-.677-.628-.677-.065 0-.123.011-.162.021-.234.4893-1.699 3.561-1.832 3.857-.179.3993-.448.624-.5.665l-.0255.02c-.0405.032-.184.144-.7753.604-.7157.556-1.833 1.426-2.276 1.7723v5.763l.6947.187c.9245.2493 2.621.707 2.906.7656zM1.0813 14.42H3.717c.0183-.0096.0336-.0186.0463-.026v-.146c-.0002-.0064-.0002-.0127 0-.0188V7.6548h-2.73v6.7363c.012.008.028.018.048.029z" fill="#FFF"/>
</svg>
